img/logos/keen.svg

<?xml version="1.0" encoding="UTF-8" standalone="no"?>
<svg width="512px" height="111px" viewBox="0 0 512 111" version="1.1" xmlns="http://www.w3.org/2000/svg" xmlns:xlink="http://www.w3.org/1999/xlink" preserveAspectRatio="xMinYMin meet">
	<g>
		<g>
			<path d="M51.5542626,63.0389226 L57.6293064,73.5590572 L42.4727273,99.8684444 L121.368997,99.8684444 L127.4087,110.329966 L24.173468,110.329966 L51.5542626,63.0389226 Z" fill="#F35757"></path>
			<path d="M51.6077037,20.9428687 L78.8721347,68.3028687 L66.7263569,68.3028687 L51.5671919,42.0469226 L12.031138,110.329966 L0,110.329966 L51.6077037,20.9428687 Z" fill="#49C5B1"></path>
			<path d="M115.302572,89.362101 L60.6504512,89.362101 L66.7306667,78.8100741 L97.0438249,78.8100741 L57.6775758,10.4296296 L63.6983165,0 L115.302572,89.362101 Z" fill="#00AFD7"></path>
		</g>
		<path d="M212.143838,81.1640673 L186.431785,49.4528215 L210.311327,25.7629091 C211.344808,24.7328754 211.847327,23.6295758 211.847327,22.3926734 C211.847327,19.8878384 209.695892,17.6924444 207.243636,17.6924444 C205.632646,17.6924444 204.547448,18.4569966 203.569993,19.3267071 L165.738882,58.111138 L165.738882,22.491798 C165.738882,19.8456027 163.585724,17.6924444 160.939529,17.6924444 C158.388148,17.6924444 156.232404,19.8895623 156.232404,22.491798 L156.232404,84.5610236 C156.232404,87.1641212 158.388148,89.362101 160.939529,89.362101 C163.585724,89.362101 165.738882,87.2089428 165.738882,84.5610236 L165.738882,69.943165 L179.686141,55.9984916 L204.762936,87.2279057 C205.754182,88.6440943 207.051421,89.362963 208.619313,89.362963 C211.223273,89.362963 213.422976,87.1641212 213.422976,84.5618855 C213.422976,83.0069226 212.812714,82.0156768 212.143838,81.1640673 L212.143838,81.1640673 Z M266.525306,61.8037441 C266.525306,48.547771 258.106613,35.1280269 242.016539,35.1280269 C227.832242,35.1280269 216.719946,47.1445118 216.719946,62.4889966 L216.719946,62.6872458 C216.719946,78.2885926 228.018424,90.0525253 243.000889,90.0525253 C250.986882,90.0525253 257.096404,87.6080269 262.782707,82.1553131 C263.734303,81.3218047 264.259232,80.2176431 264.259232,79.0445253 C264.259232,76.7767273 262.369832,74.9321481 260.046869,74.9321481 C258.783246,74.9321481 257.889401,75.5518923 257.292929,76.0466532 C253.081428,79.9254411 248.601859,81.7320943 243.196552,81.7320943 C234.251205,81.7320943 227.537455,75.5363771 226.23763,66.211771 L262.118141,66.211771 C264.547987,66.2109091 266.525306,64.2327273 266.525306,61.8037441 L266.525306,61.8037441 Z M241.820875,43.2545185 C251.734195,43.2545185 256.187044,51.1517306 257.121401,58.8705185 L226.236768,58.8705185 C227.51763,49.6260741 233.818505,43.2545185 241.820875,43.2545185 L241.820875,43.2545185 Z M322.385886,61.8037441 C322.385886,48.547771 313.967192,35.1280269 297.877118,35.1280269 C283.694545,35.1280269 272.583973,47.1445118 272.583973,62.4889966 L272.583973,62.6872458 C272.583973,78.2885926 283.881589,90.0525253 298.861468,90.0525253 C306.845737,90.0525253 312.955259,87.6080269 318.643286,82.1535892 C319.59402,81.3218047 320.117226,80.2176431 320.117226,79.0445253 C320.117226,76.7767273 318.226963,74.9321481 315.903138,74.9321481 C314.641239,74.9321481 313.747394,75.5518923 313.150923,76.0466532 C308.939421,79.9254411 304.460714,81.7320943 299.056269,81.7320943 C290.11437,81.7320943 283.40062,75.5355152 282.095623,66.211771 L317.975273,66.211771 C320.407704,66.2109091 322.385886,64.2327273 322.385886,61.8037441 L322.385886,61.8037441 Z M297.681455,43.2545185 C307.591327,43.2545185 312.043313,51.1517306 312.980256,58.8705185 L282.096485,58.8705185 C283.377347,49.6260741 289.678222,43.2545185 297.681455,43.2545185 L297.681455,43.2545185 Z M357.481158,35.1280269 C350.553643,35.1280269 344.989737,37.8233535 340.903219,43.1519461 L340.903219,40.4255892 C340.903219,37.7862896 338.83798,35.7184646 336.201266,35.7184646 C333.662815,35.7184646 331.596714,37.8293872 331.596714,40.4255892 L331.596714,84.6601481 C331.596714,87.296862 333.661953,89.362101 336.298667,89.362101 C338.923313,89.362101 340.903219,87.3399596 340.903219,84.6601481 L340.903219,58.8463838 C340.903219,49.9579259 346.828283,43.7501414 355.312485,43.7501414 C363.592404,43.7501414 368.536566,49.1726869 368.536566,58.2533603 L368.536566,84.6592862 C368.536566,87.296 370.603529,89.3612391 373.24369,89.3612391 C375.828687,89.3612391 377.853414,87.296 377.853414,84.6592862 L377.853414,56.3837845 C377.853414,43.4717306 369.857077,35.1280269 357.481158,35.1280269 L357.481158,35.1280269 Z M423.584323,17.6915825 C421.034667,17.6915825 418.880646,19.8887003 418.880646,22.490936 L418.880646,84.5601616 C418.880646,87.1632593 421.034667,89.3612391 423.584323,89.3612391 C426.232242,89.3612391 428.387125,87.2080808 428.387125,84.5601616 L428.387125,22.490936 C428.387125,19.8447407 426.232242,17.6915825 423.584323,17.6915825 L423.584323,17.6915825 Z M476.062599,17.0020202 C455.803259,17.0020202 439.932983,33.0455488 439.932983,53.5255488 L439.932983,53.722936 C439.932983,74.4356633 455.381764,90.0533872 475.866936,90.0533872 C496.128862,90.0533872 512,74.0098586 512,53.5264108 L512,53.3307475 C512,32.6197441 496.550357,17.0020202 476.062599,17.0020202 L476.062599,17.0020202 Z M502.19701,53.5255488 L502.19701,53.722936 C502.19701,69.3527273 490.961455,81.1390707 476.062599,81.1390707 C461.055138,81.1390707 449.737697,69.2673939 449.737697,53.5255488 L449.737697,53.3298855 C449.737697,37.7018182 460.970667,25.9171987 475.866936,25.9171987 C490.631327,25.9171987 502.19701,38.0440135 502.19701,53.5255488 L502.19701,53.5255488 Z" fill="#546A7E"></path>
	</g>
</svg>

<svg width="512" height="111" viewBox="0 0 512 111" xmlns="http://www.w3.org/2000/svg" preserveAspectRatio="xMinYMin meet"><path d="M51.554 63.04l6.075 10.52-15.157 26.308h78.896l6.04 10.462H24.172l27.38-47.29z" fill="#F35757"/><path d="M51.608 20.943l27.264 47.36H66.726l-15.16-26.256-39.535 68.283H0l51.608-89.387z" fill="#49C5B1"/><path d="M115.303 89.362H60.65l6.08-10.552h30.314L57.678 10.43 63.698 0l51.605 89.362z" fill="#00AFD7"/><path d="M212.144 81.164l-25.712-31.71 23.88-23.69c1.033-1.03 1.535-2.134 1.535-3.37 0-2.506-2.15-4.702-4.603-4.702-1.61 0-2.697.765-3.674 1.635L165.74 58.11V22.493c0-2.646-2.154-4.8-4.8-4.8-2.552 0-4.708 2.198-4.708 4.8v62.07c0 2.602 2.156 4.8 4.708 4.8 2.646 0 4.8-2.153 4.8-4.8V69.94L179.685 56l25.077 31.23c.99 1.416 2.288 2.135 3.856 2.135 2.603 0 4.803-2.2 4.803-4.8 0-1.556-.61-2.547-1.28-3.4zm54.38-19.36c0-13.256-8.417-26.676-24.507-26.676-14.185 0-25.297 12.017-25.297 27.36v.2c0 15.6 11.298 27.365 26.28 27.365 7.987 0 14.096-2.445 19.783-7.898.95-.833 1.476-1.937 1.476-3.11 0-2.268-1.89-4.113-4.213-4.113-1.264 0-2.158.62-2.754 1.115-4.212 3.878-8.69 5.685-14.096 5.685-8.946 0-15.66-6.196-16.96-15.52h35.88c2.43 0 4.408-1.98 4.408-4.408zm-24.703-18.55c9.914 0 14.367 7.898 15.3 15.617h-30.883c1.28-9.244 7.582-15.615 15.584-15.615zm80.566 18.55c0-13.256-8.42-26.676-24.51-26.676-14.18 0-25.292 12.017-25.292 27.36v.2c0 15.6 11.298 27.365 26.277 27.365 7.986 0 14.095-2.445 19.783-7.9.95-.83 1.474-1.935 1.474-3.108 0-2.268-1.89-4.113-4.214-4.113-1.262 0-2.156.62-2.752 1.115-4.21 3.878-8.69 5.685-14.094 5.685-8.942 0-15.655-6.196-16.96-15.52h35.88c2.432 0 4.41-1.98 4.41-4.408zm-24.705-18.55c9.91 0 14.363 7.898 15.3 15.617h-30.884c1.28-9.244 7.582-15.615 15.585-15.615zm59.8-8.126c-6.926 0-12.49 2.695-16.577 8.024v-2.726c0-2.64-2.065-4.708-4.702-4.708-2.537 0-4.603 2.11-4.603 4.708V84.66c0 2.637 2.065 4.702 4.702 4.702 2.623 0 4.603-2.022 4.603-4.702V58.846c0-8.888 5.925-15.096 14.41-15.096 8.28 0 13.224 5.423 13.224 14.503V84.66c0 2.636 2.067 4.7 4.707 4.7 2.585 0 4.61-2.064 4.61-4.7V56.383c0-12.912-7.997-21.256-20.373-21.256zm66.104-17.436c-2.55 0-4.703 2.197-4.703 4.8V84.56c0 2.603 2.155 4.8 4.704 4.8 2.648 0 4.803-2.152 4.803-4.8V22.49c0-2.645-2.155-4.798-4.803-4.798zm52.48-.69c-20.26 0-36.13 16.044-36.13 36.524v.197c0 20.713 15.448 36.33 35.933 36.33C496.13 90.053 512 74.01 512 53.526v-.195c0-20.71-15.45-36.328-35.937-36.328zm26.133 36.524v.197c0 15.63-11.236 27.416-26.134 27.416-15.008 0-26.325-11.873-26.325-27.614v-.196c0-15.628 11.233-27.413 26.13-27.413 14.763 0 26.33 12.127 26.33 27.61z" fill="#546A7E"/></svg>
